public/svgs/regular/microwave.svg

<svg xmlns="http://www.w3.org/2000/svg" viewBox="0 0 576 512"><!-- Font Awesome Pro 6.0.0-alpha2 by @fontawesome - https://fontawesome.com License - https://fontawesome.com/license (Commercial License) --><path d="M384 128H128C110.326 128 96 142.326 96 160V320C96 337.672 110.326 352 128 352H384C401.674 352 416 337.672 416 320V160C416 142.326 401.674 128 384 128ZM472 224C458.746 224 448 234.744 448 248C448 261.254 458.746 272 472 272S496 261.254 496 248C496 234.744 485.254 224 472 224ZM512 32H64C28.654 32 0 60.652 0 96V384C0 419.346 28.654 448 64 448V456C64 469.254 74.746 480 88 480S112 469.254 112 456V448H464V456C464 469.254 474.746 480 488 480S512 469.254 512 456V448C547.346 448 576 419.346 576 384V96C576 60.652 547.346 32 512 32ZM528 384C528 392.822 520.822 400 512 400H64C55.178 400 48 392.822 48 384V96C48 87.178 55.178 80 64 80H512C520.822 80 528 87.178 528 96V384ZM472 144C458.746 144 448 154.744 448 168C448 181.254 458.746 192 472 192S496 181.254 496 168C496 154.744 485.254 144 472 144Z"/></svg>

<svg xmlns="http://www.w3.org/2000/svg" viewBox="0 0 576 512"><!--! Font Awesome Pro 6.5.1 by @fontawesome - https://fontawesome.com License - https://fontawesome.com/license (Commercial License) Copyright 2023 Fonticons, Inc. --><path d="M512 80c8.8 0 16 7.2 16 16V384c0 8.8-7.2 16-16 16H64c-8.8 0-16-7.2-16-16V96c0-8.8 7.2-16 16-16H512zM64 32C28.7 32 0 60.7 0 96V384c0 35.3 28.7 64 64 64l0 8c0 13.3 10.7 24 24 24s24-10.7 24-24v-8H464v8c0 13.3 10.7 24 24 24s24-10.7 24-24v-8c35.3 0 64-28.7 64-64V96c0-35.3-28.7-64-64-64H64zM432 136V344c0 13.3 10.7 24 24 24s24-10.7 24-24V136c0-13.3-10.7-24-24-24s-24 10.7-24 24zm-312-8c-13.3 0-24 10.7-24 24V328c0 13.3 10.7 24 24 24H360c13.3 0 24-10.7 24-24V152c0-13.3-10.7-24-24-24H120z"/></svg>
